resources/META-INF/pluginIcon.svg

<svg viewBox="0 0 80 67.664" xmlns="http://www.w3.org/2000/svg">
  <g fill="#2e3440">
    <path d="m54.438 67.664-27.771-35.548v-9.863l30.779 39.79h16.54v-56.028h-27.818l-6.014-6.015h39.846v67.664z" />
    <path d="m25.562 0 27.771 35.546v9.864l-30.779-39.79h-16.539v56.028h27.817l6.014 6.015h-39.846v-67.663z" />
  </g>
</svg>

<svg xmlns="http://www.w3.org/2000/svg" viewBox="0 0 80 67.664">
  <path fill="#2E3440" d="M54.438 67.664L26.667 32.116v-9.863l30.779 39.79h16.54V6.015H46.168L40.154 0H80v67.664z"/>
  <path fill="#2E3440" d="M25.562 0l27.771 35.546v9.864L22.554 5.62H6.015v56.028h27.817l6.014 6.015H0V0z"/>
</svg>
